static/images/icons/noun_Square Abstract_327754.svg

<svg enable-background="new 0 0 32 32" height="100" viewBox="0 0 32 32" width="100" xmlns="http://www.w3.org/2000/svg"><path d="m0 32h32v-32h-32zm2.038-29.962h27.923v27.923h-27.923z"/><path d="m4.038 27.962h23.923v-23.924h-23.923zm17.011-19.712h3.402v3.402h-3.402zm0 6.049h3.402v3.402h-3.402zm0 6.049h3.402v3.402h-3.402zm-6.75-12.098h3.402v3.402h-3.402zm0 6.049h3.402v3.402h-3.402zm0 6.049h3.402v3.402h-3.402zm-6.75-12.098h3.402v3.402h-3.402zm0 6.049h3.402v3.402h-3.402zm0 6.049h3.402v3.402h-3.402z"/></svg>

<svg height='100px' width='100px'  fill="#000000" xmlns="http://www.w3.org/2000/svg" xmlns:xlink="http://www.w3.org/1999/xlink" version="1.1" x="0px" y="0px" viewBox="0 0 32 32" enable-background="new 0 0 32 32" xml:space="preserve"><g display="none"><rect x="-247.333" y="-18.682" display="inline" fill="#000000" width="473.333" height="236"></rect></g><g display="none"><g display="inline"><rect x="0" fill="#000000" width="32" height="32"></rect></g><g display="inline"><g><path fill="#000000" d="M27.962,4.038v23.923H4.038V4.038H27.962 M29.962,2.038H2.038v27.923h27.923V2.038L29.962,2.038z"></path></g></g><g display="inline"><g><rect x="7.549" y="8.25" fill="#000000" width="3.402" height="3.402"></rect><rect x="7.549" y="14.299" fill="#000000" width="3.402" height="3.402"></rect><rect x="7.549" y="20.348" fill="#000000" width="3.402" height="3.402"></rect></g><g><rect x="14.299" y="8.25" fill="#000000" width="3.402" height="3.402"></rect><rect x="14.299" y="14.299" fill="#000000" width="3.402" height="3.402"></rect><rect x="14.299" y="20.348" fill="#000000" width="3.402" height="3.402"></rect></g><g><rect x="21.049" y="8.25" fill="#000000" width="3.402" height="3.402"></rect><rect x="21.049" y="14.299" fill="#000000" width="3.402" height="3.402"></rect><rect x="21.049" y="20.348" fill="#000000" width="3.402" height="3.402"></rect></g></g></g><g display="none"><g display="inline"><path fill="#000000" d="M31,1v30H1V1H31 M32,0H0v32h32V0L32,0z"></path></g><g display="inline"><path fill="#000000" d="M28.962,3.038v25.923H3.038V3.038H28.962 M29.962,2.038H2.038v27.923h27.923V2.038L29.962,2.038z"></path></g><rect x="7.549" y="8.25" display="inline" fill="#000000" stroke="#000000" stroke-miterlimit="10" width="3.402" height="3.402"></rect><rect x="7.549" y="14.299" display="inline" fill="#000000" stroke="#000000" stroke-miterlimit="10" width="3.402" height="3.402"></rect><rect x="7.549" y="20.348" display="inline" fill="#000000" stroke="#000000" stroke-miterlimit="10" width="3.402" height="3.402"></rect><rect x="14.299" y="8.25" display="inline" fill="#000000" stroke="#000000" stroke-miterlimit="10" width="3.402" height="3.402"></rect><rect x="14.299" y="14.299" display="inline" fill="#000000" stroke="#000000" stroke-miterlimit="10" width="3.402" height="3.402"></rect><rect x="14.299" y="20.348" display="inline" fill="#000000" stroke="#000000" stroke-miterlimit="10" width="3.402" height="3.402"></rect><rect x="21.049" y="8.25" display="inline" fill="#000000" stroke="#000000" stroke-miterlimit="10" width="3.402" height="3.402"></rect><rect x="21.049" y="14.299" display="inline" fill="#000000" stroke="#000000" stroke-miterlimit="10" width="3.402" height="3.402"></rect><rect x="21.049" y="20.348" display="inline" fill="#000000" stroke="#000000" stroke-miterlimit="10" width="3.402" height="3.402"></rect></g><g display="none"><g display="inline"><g><rect x="0.5" y="0.5" fill="#000000" width="31" height="31"></rect></g><g><path d="M31,1v30H1V1H31 M32,0H0v32h32V0L32,0z"></path></g></g><g display="inline"><g><rect x="2.538" y="2.539" fill="#000000" width="26.924" height="26.923"></rect></g><g><g><path d="M28.962,3.038v25.923H3.038V3.038H28.962 M29.962,2.038H2.038v27.923h27.923V2.038L29.962,2.038z"></path></g></g></g><g display="inline"><rect x="7.549" y="8.25" fill="#000000" width="3.402" height="3.402"></rect><path d="M11.451,12.152H7.049V7.75h4.402V12.152z M8.049,11.152h2.402V8.75H8.049V11.152z"></path></g><g display="inline"><rect x="7.549" y="14.299" fill="#000000" width="3.402" height="3.402"></rect><path d="M11.451,18.201H7.049v-4.402h4.402V18.201z M8.049,17.201h2.402v-2.402H8.049V17.201z"></path></g><g display="inline"><rect x="7.549" y="20.348" fill="#000000" width="3.402" height="3.402"></rect><path d="M11.451,24.25H7.049v-4.402h4.402V24.25z M8.049,23.25h2.402v-2.402H8.049V23.25z"></path></g><g display="inline"><rect x="14.299" y="8.25" fill="#000000" width="3.402" height="3.402"></rect><path d="M18.201,12.152h-4.402V7.75h4.402V12.152z M14.799,11.152h2.402V8.75h-2.402V11.152z"></path></g><g display="inline"><rect x="14.299" y="14.299" fill="#000000" width="3.402" height="3.402"></rect><path d="M18.201,18.201h-4.402v-4.402h4.402V18.201z M14.799,17.201h2.402v-2.402h-2.402V17.201z"></path></g><g display="inline"><rect x="14.299" y="20.348" fill="#000000" width="3.402" height="3.402"></rect><path d="M18.201,24.25h-4.402v-4.402h4.402V24.25z M14.799,23.25h2.402v-2.402h-2.402V23.25z"></path></g><g display="inline"><rect x="21.049" y="8.25" fill="#000000" width="3.402" height="3.402"></rect><path d="M24.951,12.152h-4.402V7.75h4.402V12.152z M21.549,11.152h2.402V8.75h-2.402V11.152z"></path></g><g display="inline"><rect x="21.049" y="14.299" fill="#000000" width="3.402" height="3.402"></rect><path d="M24.951,18.201h-4.402v-4.402h4.402V18.201z M21.549,17.201h2.402v-2.402h-2.402V17.201z"></path></g><g display="inline"><rect x="21.049" y="20.348" fill="#000000" width="3.402" height="3.402"></rect><path d="M24.951,24.25h-4.402v-4.402h4.402V24.25z M21.549,23.25h2.402v-2.402h-2.402V23.25z"></path></g></g><g><g><path d="M0,32h32V0H0V32z M2.038,2.038h27.923v27.923H2.038V2.038z"></path><path d="M4.038,27.962h23.923V4.038H4.038V27.962z M21.049,8.25h3.402v3.402h-3.402V8.25z M21.049,14.299h3.402v3.402h-3.402    V14.299z M21.049,20.348h3.402v3.402h-3.402V20.348z M14.299,8.25h3.402v3.402h-3.402V8.25z M14.299,14.299h3.402v3.402h-3.402    V14.299z M14.299,20.348h3.402v3.402h-3.402V20.348z M7.549,8.25h3.402v3.402H7.549V8.25z M7.549,14.299h3.402v3.402H7.549V14.299    z M7.549,20.348h3.402v3.402H7.549V20.348z"></path></g></g></svg>
